src/assets/outline/GooglePaly.svg

<svg width="24" height="24" viewBox="0 0 24 24"  xmlns="http://www.w3.org/2000/svg">
<path d="M16.8901 15.9606C16.7001 15.9606 16.5001 15.8806 16.3601 15.7406L13.1701 12.5506C12.8801 12.2606 12.8801 11.7806 13.1701 11.4906L16.3901 8.2706C16.6201 8.0406 16.9701 7.99062 17.2601 8.13062L21.7501 10.3806C22.3701 10.6806 22.7601 11.3006 22.7601 12.0006C22.7601 12.7006 22.3701 13.3206 21.7501 13.6206L17.2401 15.8806C17.1201 15.9306 17.0001 15.9606 16.8901 15.9606ZM14.7601 12.0206L17.0301 14.2906L21.0601 12.2706C21.0601 12.2706 21.0601 12.2706 21.0701 12.2706C21.2201 12.2006 21.2401 12.0706 21.2401 12.0006C21.2401 11.9306 21.2201 11.8006 21.0701 11.7306L17.0601 9.72061L14.7601 12.0206Z" />
<path d="M3.07 22.749C2.74 22.749 2.4 22.659 2.11 22.469C1.57 22.139 1.25 21.5591 1.25 20.9191V3.05905C1.25 2.42905 1.57 1.84906 2.11 1.50906C2.65 1.17906 3.31 1.13904 3.88 1.42904L17.25 8.11904C17.47 8.22904 17.62 8.42906 17.65 8.66906C17.68 8.90906 17.61 9.14906 17.44 9.31906L4.64 22.119C4.58 22.179 4.52 22.2191 4.44 22.2591L3.86 22.549C3.62 22.689 3.34 22.749 3.07 22.749ZM3.07 2.74905C3 2.74905 2.94 2.77904 2.9 2.79904C2.84 2.82904 2.75 2.91906 2.75 3.06906V20.929C2.75 21.089 2.84 21.1691 2.9 21.1991C2.96 21.2391 3.07 21.279 3.22 21.209L3.68 20.9791L15.65 9.00906L3.21 2.78906C3.16 2.75906 3.11 2.74905 3.07 2.74905Z" />
<path d="M4.11999 22.3495C3.88999 22.3495 3.65999 22.2396 3.50999 22.0396C3.28999 21.7396 3.32999 21.3295 3.58999 21.0695L13.17 11.4895C13.31 11.3495 13.5 11.2695 13.7 11.2695C13.9 11.2695 14.09 11.3495 14.23 11.4895L17.42 14.6795C17.59 14.8495 17.67 15.0895 17.63 15.3295C17.59 15.5695 17.44 15.7695 17.23 15.8795L4.46999 22.2695C4.34999 22.3195 4.23999 22.3495 4.11999 22.3495ZM13.7 13.0795L7.92999 18.8495L15.62 14.9995L13.7 13.0795Z" />
<path d="M13.6998 12.7696C13.5098 12.7696 13.3198 12.6996 13.1698 12.5496L3.55979 2.93961C3.26979 2.64961 3.26979 2.16961 3.55979 1.87961C3.84979 1.58961 4.32979 1.58961 4.61979 1.87961L14.2298 11.4896C14.5198 11.7796 14.5198 12.2596 14.2298 12.5496C14.0898 12.6996 13.8898 12.7696 13.6998 12.7696Z" />
<path d="M16.8998 15.9794C16.7198 15.9794 16.5298 15.9094 16.3898 15.7594L16.3598 15.7294C16.0698 15.4394 16.0698 14.9594 16.3698 14.6694C16.6698 14.3794 17.1398 14.3794 17.4298 14.6794C17.7198 14.9694 17.7298 15.4694 17.4398 15.7594C17.2798 15.9094 17.0898 15.9794 16.8998 15.9794Z" />
</svg>

<?xml version="1.0" encoding="UTF-8"?>
<svg width="24" height="24" viewBox="0 0 24 24" xmlns="http://www.w3.org/2000/svg">
 <path d="m16.89 15.961c-0.19 0-0.39-0.08-0.53-0.22l-3.19-3.19c-0.29-0.29-0.29-0.77 0-1.06l3.22-3.22c0.23-0.23 0.58-0.27998 0.87-0.13998l4.49 2.25c0.62 0.3 1.01 0.92 1.01 1.62s-0.39 1.32-1.01 1.62l-4.51 2.26c-0.12 0.05-0.24 0.08-0.35 0.08zm-2.13-3.94 2.27 2.27 4.03-2.02h0.01c0.15-0.07 0.17-0.2 0.17-0.27s-0.02-0.2-0.17-0.27l-4.01-2.01-2.3 2.3z"/>
 <path d="m3.07 22.749c-0.33 0-0.67-0.09-0.96-0.28-0.54-0.33-0.86-0.9099-0.86-1.5499v-17.86c0-0.63 0.32-1.21 0.86-1.55 0.54-0.33 1.2-0.37002 1.77-0.08002l13.37 6.69c0.22 0.11 0.37 0.31002 0.4 0.55002s-0.04 0.48-0.21 0.65l-12.8 12.8c-0.06 0.06-0.12 0.1001-0.2 0.1401l-0.58 0.2899c-0.24 0.14-0.52 0.2-0.79 0.2zm0-20c-0.07 0-0.13 0.02999-0.17 0.04999-0.06 0.03-0.15 0.12002-0.15 0.27002v17.86c0 0.16 0.09 0.2401 0.15 0.2701 0.06 0.04 0.17 0.0799 0.32 0.0099l0.46-0.2299 11.97-11.97-12.44-6.22c-0.05-0.03-0.1-0.04001-0.14-0.04001z"/>
 <path d="m4.12 22.35c-0.23 0-0.46-0.1099-0.61-0.3099-0.22-0.3-0.18-0.7101 0.08-0.9701l9.58-9.58c0.14-0.14 0.33-0.22 0.53-0.22s0.39 0.08 0.53 0.22l3.19 3.19c0.17 0.17 0.25 0.41 0.21 0.65s-0.19 0.44-0.4 0.55l-12.76 6.39c-0.12 0.05-0.23 0.08-0.35 0.08zm9.58-9.27-5.77 5.77 7.69-3.85-1.92-1.92z"/>
 <path d="m13.7 12.77c-0.19 0-0.38-0.07-0.53-0.22l-9.61-9.61c-0.29-0.29-0.29-0.77 0-1.06s0.77-0.29 1.06 0l9.61 9.61c0.29 0.29 0.29 0.77 0 1.06-0.14 0.15-0.34 0.22-0.53 0.22z"/>
 <path d="m16.9 15.979c-0.18 0-0.37-0.07-0.51-0.22l-0.03-0.03c-0.29-0.29-0.29-0.77 0.01-1.06s0.77-0.29 1.06 0.01c0.29 0.29 0.3 0.79 0.01 1.08-0.16 0.15-0.35 0.22-0.54 0.22z"/>
</svg>
